X:2271
T:Carol
C:Caley, Sulby 
C:Traditional
O:Isle of Man
Z:Clague collection
B:Kiaull Vannin #271 
L:1/4
M:4/4 
Q:50 
K:G 
G/E/|D G F G|A2 G A/B/|c B A/G/ F|G3 G/E/|D G F G|A2 G A/B/|c B A/G/ F|G3 B/c/| 
dd Bd|c B A B/c/|dG FE|D3/2E/ F D|G GF G|A2G A/B/|c B A/G/F|G3|| 

